workspaces/osm/styles/symbols/spring.svg

<svg width="5" height="7" version="1.1" xmlns="http://www.w3.org/2000/svg"><rect width="5" height="7" fill="#fff"/><path d="m4 1h-3v3h2v1h-2v1h3v-3h-2v-1h2v-1z" fill="#588499"/></svg>

<?xml version="1.0" encoding="UTF-8" standalone="no"?>

<svg xmlns="http://www.w3.org/2000/svg"
   version="1.1"
   width="5"
   height="7">
	<rect width="5" height="7" fill="white" />
	<path d="M 4,1 1,1 1,4 3,4 3,5 1,5 1,6 4,6 4,3 2,3 2,2 4,2 4,1 z" fill="#588499" />
</svg>
